X: 28847
T: My Wife's A Wanton Wee Thing
R: jig
M: 6/8
K: Dmajor
"D" d2A dfe|"D" d3 A2B|"C" =cdc cGE|"C" =c3 c2^c|
"D" d2A dfe|"D" d3 A2G|"D" FDF "C" E=CE|"D" D3 D2:|
"D" ABA FDF|"D" A3 =c3|"C" GAG E=CE|"C" G3 B3|
"D" ABA FDF|"D" A3 G3|"D" FDF "C" E=CE|"D" D3 DFG|
"D" ABA FDF|"D" AdA FDF|"C" GAG E=CE|"C" G=cG EFG|
"D" ABA FDF|"D" A3 a2 g|"D" fdf "C" e=ce|"D" d3 d2||

